X:2820
L:1/8
Q:3/8=120
M:6/8
K:C
 g |"^$" e3 g/.fed | c2 B A2 B | c2 c d2 d | eag dgf | e3{g} fed | c2 B A2 B | c2 c d2 g | 
 ced c2 || e | edc cBB | A2 B (BA) e | edc cBA | GA^F G2 e | edc cBB | A2 B (BA) e | edc cBA | 
 GA^F G2"^$" || e | fed cBA | ^GAB A2 c | Bfe dcB | A3 ^Gze | fed cBA | ^GAB Ace | Bdf fe^G | 
 (B3"^D.C." A2) |]

